images/logo-01.svg

<svg width="141" height="52" viewBox="0 0 141 52" fill="none" xmlns="http://www.w3.org/2000/svg">
<g clip-path="url(#clip0)">
<path d="M0 0H51.676V51.999H0V0Z" fill="#F4F5F9"/>
<path d="M41.954 0H141V51.999H41.954V0Z" stroke="#F4F5F9" stroke-width="6" stroke-miterlimit="50"/>
<path d="M15.7321 12.346H24.961C29.1664 12.346 32.2156 12.9477 34.1087 14.1512C36.0153 15.3411 36.9686 17.241 36.9686 19.8507C36.9686 21.6221 36.5494 23.0758 35.7111 24.2116C34.8862 25.3475 33.7842 26.0304 32.4049 26.2602V26.4631C34.2845 26.8823 35.6367 27.6665 36.4615 28.8159C37.2999 29.9653 37.7191 31.4933 37.7191 33.3999C37.7191 36.1043 36.7387 38.2138 34.778 39.7283C32.8309 41.2428 30.1805 42 26.827 42H15.7321V12.346ZM22.0199 24.0899H25.6709C27.3747 24.0899 28.6052 23.8262 29.3624 23.2989C30.1332 22.7715 30.5186 21.8993 30.5186 20.6824C30.5186 19.5465 30.0994 18.7352 29.261 18.2484C28.4362 17.748 27.1245 17.4979 25.3261 17.4979H22.0199V24.0899ZM22.0199 29.0796V36.8075H26.1171C27.8479 36.8075 29.1258 36.4762 29.9506 35.8136C30.7755 35.151 31.1879 34.1369 31.1879 32.7711C31.1879 30.3101 29.43 29.0796 25.9143 29.0796H22.0199Z" fill="#4A4C55"/>
<path d="M65.1986 42V12.346H67.2675V42H65.1986ZM97.2258 42H95.1366L77.5714 15.6724H77.4091C77.5714 18.8095 77.6525 21.1759 77.6525 22.7715V42H75.6648V12.346H77.7336L95.2786 38.633H95.4003C95.2786 36.199 95.2178 33.8867 95.2178 31.6961V12.346H97.2258V42ZM130.571 27.1324C130.571 31.8381 129.395 35.5635 127.042 38.3085C124.689 41.0399 121.444 42.4057 117.306 42.4057C113.182 42.4057 109.943 41.0399 107.591 38.3085C105.238 35.5635 104.061 31.8246 104.061 27.0918C104.061 22.3726 105.244 18.6608 107.611 15.9564C109.991 13.2384 113.236 11.8794 117.347 11.8794C121.485 11.8794 124.723 13.2452 127.062 15.9766C129.402 18.6946 130.571 22.4132 130.571 27.1324ZM106.313 27.1324C106.313 31.3784 107.259 34.6642 109.152 36.99C111.045 39.3023 113.763 40.4585 117.306 40.4585C120.876 40.4585 123.601 39.3091 125.48 37.0103C127.373 34.7116 128.32 31.4189 128.32 27.1324C128.32 22.8594 127.373 19.5871 125.48 17.3153C123.601 15.0301 120.89 13.8875 117.347 13.8875C113.817 13.8875 111.093 15.0369 109.173 17.3356C107.266 19.6344 106.313 22.9 106.313 27.1324Z" fill="#F1EBE7"/>
</g>
<defs>
<clipPath id="clip0">
<rect width="141" height="52" fill="white"/>
</clipPath>
</defs>
</svg>

<svg width="141" height="52" viewBox="0 0 141 52" fill="none" xmlns="http://www.w3.org/2000/svg"><g clip-path="url(#clip0)"><path d="M0 0h51.676v51.999H0V0z" fill="#F4F5F9"/><path d="M41.954 0H141v51.999H41.954V0z" stroke="#F4F5F9" stroke-width="6" stroke-miterlimit="50"/><path d="M15.732 12.346h9.229c4.205 0 7.255.602 9.148 1.805 1.906 1.19 2.86 3.09 2.86 5.7 0 1.771-.42 3.225-1.258 4.36-.825 1.137-1.927 1.82-3.306 2.05v.202c1.88.42 3.232 1.203 4.056 2.353.839 1.15 1.258 2.677 1.258 4.584 0 2.704-.98 4.814-2.941 6.328C32.831 41.243 30.18 42 26.827 42H15.732V12.346zM22.02 24.09h3.65c1.705 0 2.935-.264 3.692-.791.771-.527 1.157-1.4 1.157-2.617 0-1.135-.42-1.947-1.258-2.434-.825-.5-2.136-.75-3.935-.75H22.02v6.592zm0 4.99v7.727h4.097c1.73 0 3.009-.33 3.834-.993.825-.663 1.237-1.677 1.237-3.043 0-2.46-1.758-3.691-5.274-3.691H22.02z" fill="#4A4C55"/><path d="M65.199 42V12.346h2.069V42h-2.07zm32.027 0h-2.09L77.572 15.672h-.162c.162 3.137.243 5.504.243 7.1V42h-1.987V12.346h2.069l17.545 26.287h.121a139.189 139.189 0 0 1-.182-6.937v-19.35h2.008V42zm33.345-14.868c0 4.706-1.176 8.431-3.529 11.177-2.353 2.73-5.598 4.097-9.736 4.097-4.124 0-7.363-1.366-9.715-4.097-2.353-2.745-3.53-6.484-3.53-11.217 0-4.72 1.183-8.431 3.55-11.136 2.38-2.718 5.625-4.077 9.736-4.077 4.138 0 7.376 1.366 9.715 4.098 2.34 2.718 3.509 6.436 3.509 11.155zm-24.258 0c0 4.246.946 7.532 2.839 9.858 1.893 2.312 4.611 3.468 8.154 3.468 3.57 0 6.295-1.149 8.174-3.448 1.893-2.298 2.84-5.591 2.84-9.878 0-4.273-.947-7.545-2.84-9.817-1.879-2.285-4.59-3.428-8.133-3.428-3.53 0-6.254 1.15-8.174 3.449-1.907 2.298-2.86 5.564-2.86 9.796z" fill="#F1EBE7"/></g><defs><clipPath id="clip0"><path fill="#fff" d="M0 0h141v52H0z"/></clipPath></defs></svg>
